X: 1
P: Off She Goes
C: from R. Miller/New England Fiddlers Repertoire
C: Arr. T. Traub 8-10-03
R: jig
M: 6/8
L: 1/8
K: D
|: G|"D"F2 A "G"G2 B|"A"ABc "D"d2 A|"D"F2 A "G"G2 B|"Em"AFD "A"E2 D|"D"F2 A "G"G2 B|
"A"ABc "Bm"d2 e|"D"f2 d "G"g2 f|"A"edc d2 :||: e|"D"faf d2 f|"Em"gbg "A"e2 g|
"D"faf "Bm"d2 f|"A"ecA A2 g|"D"faf d2 f|"G"gbg "A"e2 g|"D"f2 d "G"g2 f|"A"edc d2 :|
